X:1
T:Daily, Daily, 87.87 D
T:Daily, Daily, 87.87 D
T:Henri Frederick Hemy, 1865
T:Public Domain Courtesy of the Cyber Hymnal™
C:Henri Frederick Hemy, 1865
Z:Public Domain
Z:Courtesy of the Cyber Hymnal™
%%score ( 1 2 ) ( 3 4 )
L:1/8
Q:1/4=110
M:4/4
K:A
V:1 treble 
V:2 treble 
V:3 bass 
V:4 bass 
V:1
 [CA]2 [CE]2 [DF]2 [CE]2 | [Dc]3 [DB] [CA]2 [CE]2 | [DF]2 [DF]2 d3 z x | [EB]3 [Ec] [EB]4 | %4
 [CA]2 [CE]2 [DF]2 [CE]2 | [Dc]3 [DB] [CA]2 [CE]2 | [DF]2 [FB]2 [EA]2 [CE]2 | [B,E]2 (FG) [CA]4 | %8
 [DE]3 [DE] [DB]2 [DE]2 | [CE]3 [CE] [Cc]2 [CA]2 | F2 G2 A2 B2 | c3 ^B c4 | %12
 [Ec]3 [Fd] [DB]2 [DB]2 | B3 z [CA]2 [CA]2 | [DF]2 [FB]2 E2 [CA]2 | (cB) (AG) [CA]4 |] %16
V:2
 x8 | x8 | x4 F2 (B,2 c) | x8 | x8 | x8 | x8 | x2 D2 x4 | x8 | x8 | F2 G2 A2 B2 | c3 ^B c4 | x8 | %13
 D2 (C2 c) x3 | x8 | D2 E2 x4 |] %16
V:3
 [A,,A,]2 [A,,A,]2 [D,A,]2 [A,,A,]2 | [E,G,]3 [E,G,] [A,,A,]2 [A,,A,]2 | %2
 [D,A,]2 [D,A,]2 B,3 [^D,A,] x | [E,G,]3 [E,A,] [E,G,]4 | [A,,A,]2 [A,,A,]2 [D,A,]2 [A,,A,]2 | %5
 [E,G,]3 [E,G,] [A,,A,]2 [A,,A,]2 | [D,A,]2 [B,,D]2 [E,C]2 [E,A,]2 | [E,G,]2 (A,B,) [A,,A,]4 | %8
 [E,G,]3 [E,G,] [E,G,]2 [E,G,]2 | [A,,A,]3 [A,,A,] [A,,A,]2 [A,,A,]2 | F,2 G,2 A,2 B,2 | %11
 C3 ^B, C4 | A,3 A, [E,A,]2 [E,G,]2 | [^E,G,]3 [E,G,] F,2 F,2 | [D,A,]2 [B,,D]2 [E,C]2 [E,A,]2 | %15
 [E,G,]2 [E,B,]2 [A,,A,]4 |] %16
V:4
 x8 | x8 | x4 (B,,C,^D,) x2 | x8 | x8 | x8 | x8 | x2 E,2 x4 | x8 | x8 | F,2 G,2 A,2 B,2 | %11
 C3 ^B, C4 | A,3 A, x4 | x8 | x8 | x8 |] %16

